!!!SOCIAL_FUNCTION:	songs of the heyo'ka
!!!PDT:	1918

Specific Region: Dakotas, Minnesota, Montana, Nebraska
!!!REG: Dakotas and Montana
!!!LING_GROUP: Siouan
!!!LANG: Tone
!!!OTL@ENG: Song in Time of Danger
!!!ONM: No. 39
**kern
*Imale
*clefF4
*k[b-e-a-d-g-]
*M2/4
*>[A,B,B]
*>norep[A,B]
*>A
*MM72
16f
=1
8.f
16e-
8.e-
16d-
=2
(8d-
16B-)
16B-
(16d-
16B-)
8B-
=3
4A-
4A-
=4
[2A-
=5
4..A-]
*>B
=!|:
16e-
=6
8.d-
16d-
(16e-
8d-)
16B-
=7
8.A-
16B-
(16B-
8A-)
16F
=8
8.E-
16F
8.E-
16D-
=9
8D-
16BB-
16BB-
8.D-
16BB-
=10
4AA-
8.AA-
16F
=11
8.E-
16E-
(16F
8E-)
16D-
=12
(8D-
16BB-)
16BB-
8D-
16BB-
16BB-
=13
4AA-
4AA-
=14
2AA-
=15
4..AA-
==:|!
*-
!!!CNT: Native American -- Sioux
!!!MRD: 1911/07//-1914///
!!!OCL: Frances Densmore
!!!YOR1: Teton Sioux Music, Bulletin 61,
!!!YOR2: Bureau of American Ethnology, Smithsonian Institution
!!!PPR: Government Printing Office
!!!PPP: Washington, D.C.
!!!PDT: 1918///
!!!ENC: Craig Stuart Sapp
!!!END: 2002/03/25/
!!!EEV: 2002/03/31/
!!!AGN: Ceremonial Song/Song of the Heyoka
!!!MPN@@SIO: Ishn'la-wicha'
!!!MPN@ENG: Lone Man
!!!TXO: Teton Sioux
!!!MLC: Standing Rock Reservation, South Dakota, United States of America
!!!ARL: 45.9/-100.7#
!!!catalog: Catalogue No. 496
!!!PPG: 163
!!!EFL: 39/245
!!!VTS: 2580532232
